static/assets/images/addons/logos/etcd.svg

<svg width="32" height="32" viewBox="0 0 32 32" fill="none" xmlns="http://www.w3.org/2000/svg">
<path d="M30.9321 16.1878C30.7896 16.1998 30.6463 16.2055 30.4942 16.2055C29.6111 16.2055 28.7544 15.9984 27.9815 15.6191C28.2388 14.1429 28.3482 12.6557 28.3195 11.174C27.4816 9.96182 26.5239 8.81819 25.4428 7.76458C25.9118 6.88518 26.6051 6.12853 27.4708 5.592L27.8424 5.36229L27.5527 5.03568C26.0607 3.35556 24.2799 2.05657 22.261 1.17516L21.8583 1L21.7561 1.42552C21.5153 2.41735 21.012 3.31216 20.3211 4.03014C18.9981 3.32696 17.6097 2.75477 16.1754 2.32176C14.7435 2.75415 13.3572 3.32512 12.0361 4.02659C11.348 3.30944 10.8459 2.41688 10.6062 1.4279L10.5031 1.00238L10.1021 1.17671C8.10856 2.04544 6.27874 3.37965 4.81111 5.03466L4.52066 5.36199L4.89187 5.5917C5.75478 6.1261 6.4462 6.87837 6.91441 7.7529C5.83661 8.80247 4.88001 9.94243 4.04271 11.1489C4.01009 12.6301 4.11385 14.1281 4.37241 15.6247C3.60343 16.0003 2.75144 16.2052 1.87418 16.2052C1.72025 16.2052 1.57614 16.1992 1.43619 16.1879L1 16.1547L1.04092 16.59C1.25464 18.7933 1.9387 20.8888 3.07533 22.8191L3.2971 23.1957L3.63035 22.913C4.40134 22.2604 5.33197 21.8245 6.32689 21.6499C6.97457 22.9737 7.74738 24.2324 8.63477 25.409C10.0375 25.8996 11.499 26.2659 13.0084 26.4838C13.1531 27.4821 13.0379 28.5144 12.6441 29.469L12.4781 29.8735L12.905 29.9676C13.9985 30.208 15.1018 30.3305 16.1819 30.3305L19.4579 29.9676L19.8854 29.8735L19.719 29.4683C19.3262 28.5136 19.2109 27.48 19.3557 26.4817C20.8591 26.2634 22.3152 25.8982 23.7127 25.409C24.6011 24.2313 25.3748 22.9714 26.0232 21.6464C27.0225 21.8202 27.9577 22.2565 28.7329 22.9106L29.0661 23.1929L29.2869 22.8172C30.4254 20.8844 31.1095 18.789 31.3199 16.5893L31.3609 16.1546L30.9321 16.1878ZM20.8638 21.5123C19.3139 21.9339 17.7399 22.1466 16.1754 22.1466C14.6066 22.1466 13.0346 21.9339 11.4834 21.5123C10.6344 20.1947 9.95944 18.7728 9.47529 17.282C8.99308 15.7975 8.71094 14.2424 8.62911 12.6408C9.63077 11.4023 10.77 10.3174 12.0287 9.40399C13.3066 8.47466 14.7007 7.71667 16.1754 7.14934C17.6468 7.71654 19.038 8.47282 20.3142 9.39912C21.5777 10.3174 22.7219 11.4108 23.7286 12.657C23.6427 14.2494 23.3571 15.7956 22.8742 17.2776C22.3903 18.7703 21.7145 20.1938 20.8638 21.5123ZM17.4553 14.041C17.4553 15.1359 18.3426 16.0216 19.4361 16.0216C20.5292 16.0216 21.4155 15.1361 21.4155 14.041C21.4155 12.9504 20.5292 12.0614 19.4361 12.0614C18.3426 12.0614 17.4554 12.9504 17.4554 14.041H17.4553ZM14.8962 14.041C14.8962 15.1359 14.0091 16.0216 12.9157 16.0216C11.8215 16.0216 10.9369 15.1361 10.9369 14.041C10.9369 12.9507 11.8216 12.0617 12.9158 12.0617C14.0092 12.0617 14.8963 12.9507 14.8963 14.0411L14.8962 14.041Z" fill="#1971BD"/>
</svg>

<svg xmlns="http://www.w3.org/2000/svg" width="32" height="32" fill="none" xmlns:v="https://vecta.io/nano"><path d="M30.932 16.188l-.438.018a5.7 5.7 0 0 1-2.513-.586 23.25 23.25 0 0 0 .338-4.445c-.838-1.212-1.796-2.356-2.877-3.409.469-.879 1.162-1.636 2.028-2.173l.372-.23-.29-.327c-1.492-1.68-3.273-2.979-5.292-3.861L21.858 1l-.102.426a5.7 5.7 0 0 1-1.435 2.605 22.99 22.99 0 0 0-4.146-1.708 23.01 23.01 0 0 0-4.139 1.705c-.688-.717-1.19-1.61-1.43-2.599l-.103-.426-.401.174a15.3 15.3 0 0 0-5.291 3.858l-.29.327.371.23c.863.534 1.554 1.287 2.023 2.161a23.19 23.19 0 0 0-2.872 3.396c-.033 1.481.071 2.979.33 4.476a5.69 5.69 0 0 1-2.498.581c-.154 0-.298-.006-.438-.017L1 16.155l.041.435c.214 2.203.898 4.299 2.034 6.229l.222.377.333-.283a5.7 5.7 0 0 1 2.697-1.263 23.11 23.11 0 0 0 2.308 3.759c1.403.491 2.864.857 4.374 1.075.145.998.03 2.031-.364 2.985l-.166.404.427.094a15.3 15.3 0 0 0 3.277.363l3.276-.363.428-.094-.166-.405a5.7 5.7 0 0 1-.363-2.987c1.503-.218 2.96-.584 4.357-1.073a23.13 23.13 0 0 0 2.31-3.763 5.72 5.72 0 0 1 2.71 1.264l.333.282.221-.376c1.139-1.933 1.823-4.028 2.033-6.228l.041-.435-.429.033zm-10.068 5.325c-1.55.422-3.124.634-4.688.634s-3.141-.213-4.692-.634c-.849-1.318-1.524-2.739-2.008-4.23a17.96 17.96 0 0 1-.846-4.641c1.002-1.239 2.141-2.323 3.4-3.237a18.1 18.1 0 0 1 4.147-2.255c1.471.567 2.863 1.323 4.139 2.25 1.264.918 2.408 2.012 3.414 3.258-.086 1.592-.372 3.139-.854 4.621-.484 1.493-1.16 2.916-2.01 4.235zm-3.408-7.471a1.98 1.98 0 1 0 3.96 0 1.98 1.98 0 0 0-1.979-1.98c-1.093 0-1.981.889-1.981 1.98h0zm-2.559 0a1.98 1.98 0 0 1-1.981 1.981 1.98 1.98 0 0 1 0-3.96c1.093 0 1.98.889 1.98 1.979h0z" fill="#1971bd"/></svg>
